img/cryptocurrencies/quidax.svg

<svg xmlns="http://www.w3.org/2000/svg" viewBox="0 0 90 90"><path fill="#3E2284" d="M45,90 C69.8528533,90 90,69.8528 90,45 C90,20.1472 69.8528533,0 45,0 C20.1472467,0 0,20.1472 0,45 C0,69.8528 20.1472467,90 45,90 Z M61.2402715,68.5498 C56.6203468,71.7571 51.011231,73.6364 44.9637077,73.6364 C29.1683422,73.6364 16.3637454,60.8155 16.3637454,45.0001 C16.3637454,29.1847 29.1683422,16.3638 44.9637077,16.3638 C60.7590731,16.3638 73.5637699,29.1847 73.5637699,45.0001 C73.5637699,48.5306 72.9257046,51.9119 71.758651,55.0346 C67.2322065,53.3915 62.1870716,52.9003 57.5675469,54.0098 C59.4065586,51.4435 60.4892301,48.2972 60.4892301,44.8976 C60.4892301,36.2556 53.4924072,29.2499 44.8614293,29.2499 C36.2303514,29.2499 29.2335285,36.2556 29.2335285,44.8976 C29.2335285,53.5396 36.2303514,60.5453 44.8614293,60.5453 C46.8509093,60.5453 48.7536076,60.1731 50.5037381,59.4944 C54.8828136,62.0356 58.6583166,65.6827 61.2402715,68.5498 Z M76.1314278,64.6663 C74.0911585,67.8892 71.564292,70.7734 68.6540064,73.2157 C65.4663793,69.0095 59.0222397,62.6579 51.9093414,58.6023 C58.4816539,53.6754 68.6627045,56.826 76.1314278,64.6663 Z"/><g fill="#FFF" opacity=".15" transform="translate(3.6)"><path d="M82.7082,27.0786 C75.7886,11.1616 59.933,0.0253784 41.4728,0 C22.7983,0.0256805 6.7892,11.4217 7e-05,27.6349 C4.08676,31.5142 8.7224,34.8207 13.7785,37.4258 C17.096,25.2859 28.1938,16.3637 41.3733,16.3637 C54.4509,16.3637 65.4789,25.1486 68.8897,37.1449 C73.9754,34.4585 78.626,31.0586 82.7082,27.0786 Z"/><path d="M56.6285,41.9672 C55.2581,34.7258 48.9033,29.2498 41.271,29.2498 C33.602,29.2498 27.2229,34.7785 25.8941,42.0716 C30.7382,43.3415 35.8226,44.0177 41.065,44.0177 C46.4492,44.0177 51.6668,43.3044 56.6285,41.9672 Z"/></g></svg>

<svg xmlns="http://www.w3.org/2000/svg" viewBox="0 0 90 90"><path fill="#3E2284" d="M45 90c24.853 0 45-20.147 45-45S69.853 0 45 0 0 20.147 0 45s20.147 45 45 45zm16.24-21.45a28.443 28.443 0 01-16.276 5.086c-15.796 0-28.6-12.82-28.6-28.636 0-15.815 12.804-28.636 28.6-28.636 15.795 0 28.6 12.82 28.6 28.636 0 3.53-.638 6.912-1.805 10.035-4.527-1.643-9.572-2.135-14.191-1.025a15.59 15.59 0 002.921-9.112c0-8.642-6.997-15.648-15.628-15.648-8.63 0-15.627 7.006-15.627 15.648S36.23 60.545 44.86 60.545c1.99 0 3.893-.372 5.643-1.05 4.379 2.54 8.154 6.188 10.736 9.055zm14.891-3.884a37.01 37.01 0 01-7.477 8.55c-3.188-4.206-9.632-10.558-16.745-14.614 6.573-4.927 16.754-1.776 24.222 6.064z"/><g fill="#FFF" opacity=".15"><path d="M86.308 27.079C79.388 11.162 63.533.025 45.073 0 26.398.026 10.389 11.422 3.6 27.635a59.815 59.815 0 0013.778 9.79c3.318-12.14 14.416-21.061 27.595-21.061 13.078 0 24.106 8.785 27.517 20.78A59.842 59.842 0 0086.308 27.08z"/><path d="M60.229 41.967c-1.37-7.241-7.726-12.717-15.358-12.717-7.669 0-14.048 5.529-15.377 12.822a59.754 59.754 0 0015.171 1.946c5.384 0 10.602-.714 15.564-2.05z"/></g></svg>
